svgs/razer_camera.svg

<svg width="24" height="24" viewBox="0 0 24 24" fill="none" xmlns="http://www.w3.org/2000/svg">
<path d="M12 17C13.6569 17 15 15.6569 15 14C15 12.3431 13.6569 11 12 11C10.3431 11 9 12.3431 9 14C9 15.6569 10.3431 17 12 17Z" fill="black"/>
<path d="M9.82843 4C9.29799 4 8.78929 4.21071 8.41421 4.58579L6 7H4C2.9 7 2 7.9 2 9V19C2 20.1 2.9 21 4 21H20C21.1 21 22 20.1 22 19V9C22 7.9 21.1 7 20 7H18L15.5858 4.58579C15.2107 4.21071 14.702 4 14.1716 4H9.82843ZM12 19C9.24 19 7 16.76 7 14C7 11.24 9.24 9 12 9C14.76 9 17 11.24 17 14C17 16.76 14.76 19 12 19Z" fill="black"/>
</svg>

<svg xmlns="http://www.w3.org/2000/svg" width="24" height="24" fill="none" viewBox="0 0 24 24"><path fill="#000" d="M12 17a3 3 0 1 0 0-6 3 3 0 0 0 0 6"/><path fill="#000" d="M9.828 4a2 2 0 0 0-1.414.586L6 7H4c-1.1 0-2 .9-2 2v10c0 1.1.9 2 2 2h16c1.1 0 2-.9 2-2V9c0-1.1-.9-2-2-2h-2l-2.414-2.414A2 2 0 0 0 14.172 4zM12 19c-2.76 0-5-2.24-5-5s2.24-5 5-5 5 2.24 5 5-2.24 5-5 5"/></svg>
